X:21
T:Tullochgorum
C:arr. Carlo Minasi
M:C
L:1/8
B:Chappell's One Hundred Scotch Melodies
B:Arranged for the Concertina by Carlo Minasi
Q:"Spiritoso  "1/4=140
Z:Peter Dunk 2012
K:D
!mf!E| LF>dA>D LG>=CE>G|LF>DA>D LF>GA>d|\
LF>DA>D LG>=CE>F|LD>dA>d LF2 e||
F|D>dA>B =c>=CE>F|D>dA>G F2 E>F|D>dA>B =c>=CE>F|
D>dA>B =c>de>d|=c>BA>c G>=CE>F|D>dA>G LF2 E|]

